X: 1136
T: A Whack at the Whigs.
C:F. O'Neill.
B:O'Neill's Music of Ireland
N:O'Neill's - 1136
Z:Transcribed by Stephen Foy (shf@access.digex.net)
Z:abc 1.6
M:9/8
R:slipjig
K:G
d|cAG G2 d G2 d|cAG G2 d cAG|cAG G2 d G2 d|cde =f2 d cAF:|
||d2 g faf g2 g|d2 g g2 a bag|=f2 f fge f2 f|cAc =f2 d cAF:|


